!!!ONB: MCCC : IFC0053_01 : Extracted Monophonic Melody
!!!COM: Chopin, Frédéric
!!!OPR: Mazurkas
!!!OMV: 1
!!!SCT: Op.41
!!!ODT: 1838///
**kern
*thru
*staff1
*Ipiano
*>I
*clefG2
*k[b-e-]
*g:
*M3/4
*MM108
4a[
=1
*>A
8a]
16r
16f#
4d
4f#
=2
2g
8a
8b-
=3
8cc
16r
16dd
4ee-
4ff#
=4
8gg
4.dd
4r
=5
8a
16r
16f#
4d
4f#
=6
2g
8.dd
16cc#
=7
8b-
16r
16a
4g
4f#
=8
2d
4a[
=9
8a]
8f#
4d
8.b-
16a
=10
2g
8a
8b-
=11
8cc
16r
16dd
4ee-
4ff#
=12
8gg
4.dd
4r
=13
8a
16r
16f#
4d
4f#
=14
2g
8.dd
16cc#
=15
8b-
8a
4g
4f#
=16
2.d
=17
4f
12g
12a
12g
4f
=18
12g
12a
12g
4f
4gg
=19
12ff
12gg
12ff
4.ee
8ee-
=20
12ee-
12ff
12ee-
2dd
=21
4f
12g
12a
12g
4f
=22
12g
12a
12g
4f
4ee-
=23
12dd
12ee-
12dd
4.cc#
8cc
=24
12cc
12dd
12cc
4b-
8a
8g
=25
4f
12g
12a
12g
4f
=26
12g
12a
12g
4f
4gg
=27
12ff
12gg
12ff
4.ee
8ee-
=28
12ee-
12ff
12ee-
2dd
=29
4f
12g
12a
12g
4f
=30
12g
12a
12g
4f
4ee-
=31
12dd
12ee-
12dd
4.cc#
8cc
=32
*>A1
12cc
12dd
12cc
4.b
8b-
=33
*>A
8a
16r
16f#
4d
4f#
=34
2g
8a
8b-
=35
8cc
16r
16dd
4ee-
4ff#
=36
8gg
4.dd
4r
=37
8a
16r
16f#
4d
4f#
=38
2g
8.dd
16cc#
=39
8b-
16r
16a
4g
4f#
=40
2d
4a[
=41
8a]
8f#
4d
8.b-
16a
=42
2g
8a
8b-
=43
8cc
16r
16dd
4ee-
4ff#
=44
8gg
4.dd
4r
=45
8a
16r
16f#
4d
4f#
=46
2g
8.dd
16cc#
=47
8b-
8a
4g
4f#
=48
2.d
=49
4f
12g
12a
12g
4f
=50
12g
12a
12g
4f
4gg
=51
12ff
12gg
12ff
4.ee
8ee-
=52
12ee-
12ff
12ee-
2dd
=53
4f
12g
12a
12g
4f
=54
12g
12a
12g
4f
4ee-
=55
12dd
12ee-
12dd
4.cc#
8cc
=56
12cc
12dd
12cc
4b-
8a
8g
=57
4f
12g
12a
12g
4f
=58
12g
12a
12g
4f
4gg
=59
12ff
12gg
12ff
4.ee
8ee-
=60
12ee-
12ff
12ee-
2dd
=61
4f
12g
12a
12g
4f
=62
12g
12a
12g
4f
4ee-
=63
12dd
12ee-
12dd
4.cc#
8cc
=64
*>A2
12cc
12dd
12cc
4.b-
8b
=65
*>B
8cc
16r
16b-
4.a-
8cc
=66
8cc
16r
16b-
4.g
8cc
=67
8cc
16r
16b-
4.a-
8cc
=68
8cc
16r
16b-
4ee-
4gg
=69
8.ff
16ee-
4cc
4ee-
=70
8ff
8r
4cc
4ee-
=71
8.cc
16b-
4.a-
8cc
=72
8.cc
16b-
2g
=73
8cc
16r
16b-
4.a-
8cc
=74
8cc
16r
16b-
4.g
8b-
=75
8cc
16r
16b-
4.a-
8cc
=76
8cc
16r
16b-
4ee-
4gg
=77
8.ff
16ee-
4cc
4ee-
=78
8ff
8r
4cc
4ee-
=79
8.cc
16b-
4.a-
8cc
=80
8.cc
16b-
2g
=81
8a
16r
16f#
4d
4f#
=82
2g
8a
8b-
=83
8cc
16r
16dd
4ee-
4ff#
=84
8gg
4.dd
4r
=85
8a
16r
16f#
4d
4f#
=86
2g
8.dd
16cc#
=87
8b-
8a
4g
4f#
=88
2d
4a[
=89
8a]
16r
16f#
8c#
4.d
=90
2g
8a
8b-
=91
8cc
16r
16dd
4ee-
4ff#
=92
8gg
4.dd
4r
=93
8a
16r
16f#
4d
4f#
=94
4.g
8dd
8ee-
16r
16dd
=95
8cc#
8dd
4a
8b-
8a
=96
4g
4gg
4r
==
*-
